!!!COM: Lassus, Orlandus
!!!OPR: Novae aliquot et ante hac non ita usitatae cantiones suavissimae
!!!ONM: 9
!!!OTL@@LA: Qui vult venire post me
**kern	**text	**kern	**text
*staff2	*staff2	*staff1	*staff1
*I"Bassus	*	*I"Tenor	*
*I'B	*	*I'T	*
*clefF4	*	*clefC4	*
*mclefF4	*	*mclefGv2	*
*k[b-]	*	*k[b-]	*
*F:ion	*	*F:ion	*
*M2/1	*	*M2/1	*
*met(C|)	*	*met(C|)	*
*MM180	*	*MM180	*
=1	=1	=1	=1
0C	Qui	1r	.
.	.	0c	Qui
=2	=2	=2	=2
1AA	vult	.	.
2r	.	1A	vult
2C	ve-	.	.
=3	=3	=3	=3
1D	-ni-	2r	.
.	.	2G	ve-
1E	-re	1A	-ni-
=4	=4	=4	=4
1F	post	1B-	-re
1E	me,	1c	post
=5	=5	=5	=5
2r	.	1B-	me,
2G	ve-	.	.
1A	-ni-	2r	.
.	.	2c	ve-
=6	=6	=6	=6
2G	-re	1d	-ni-
2F.	post	.	.
.	.	2c	-re
4E	.	.	.
2G	.	2B-.	post
=7	=7	=7	=7
2D	me,	.	.
.	.	4A	.
2A	ve-	2c	.
1B-	-ni-	2G	me,
.	.	2D	ve-
=8	=8	=8	=8
2A	-re	1F	-ni-
2AA.	post	.	.
.	.	2.E	-re
4BB-	.	.	.
4C	.	.	.
4AA	.	4F	.
=9	=9	=9	=9
4BB-	.	2G	.
4C	.	.	.
4FF	.	2A.	post
4GG	.	.	.
2.AA	.	.	.
.	.	4G	.
.	.	2F.	.
4BB-	.	.	.
=10	=10	=10	=10
1GG	.	.	.
.	.	8EL	.
.	.	8DJ	.
.	.	2E	.
0FF	me,	1F	me,
=11	=11	=11	=11
.	.	2r	.
.	.	2c	ab-
2r	.	2A	-ne-
2F	ab-	1A	-get
=12	=12	=12	=12
2D	-ne-	.	.
1D	-get	2B-	se-
.	.	1A	-met-
2F	se-	.	.
=13	=13	=13	=13
2E	-met-	2G	-ip-
2D	-ip-	2F	-sum,
1C	-sim,	2r	.
.	.	2G	ab-
=14	=14	=14	=14
2r	.	2E	-ne-
2C	ab-	1E	-get
2AA	-ne-	.	.
1AA	-get	2F	se-
=15	=15	=15	=15
.	.	2E	-met-
2F	se-	2D	-ip-
2E	-met-	2C	-sum
2D	-ip-	2F	et
=16	=16	=16	=16
1C	-sum	2G	tol-
.	.	2A	-lat
2r	.	2.B-	cur-
2D	et	.	.
.	.	8AL	.
.	.	8B-J	.
=17	=17	=17	=17
2E	tol-	2.c	.
2F	-lat	.	.
.	.	4d	.
2.G	cru-	2e	.
.	.	2d	-cem
8FL	.	.	.
8GJ	.	.	.
=18	=18	=18	=18
2A	.	1.c	su-
2E	-cem	.	.
1F	su-	.	.
.	.	2A	-am,
=19	=19	=19	=19
1D	-am,	2r	.
.	.	2F	et
2r	.	2G	tol-
2C	et	2A	-lat
=20	=20	=20	=20
2D	tol-	4B-	cru-
.	.	8AL	.
.	.	8B-J	.
2E	-lat	1c	.
4F	cru-	.	.
8EL	.	.	.
8FJ	.	.	.
2G	.	2B-	-cem
=21	=21	=21	=21
2F	-cem	2.A	su-
2D.	su-	.	.
.	.	4G	.
.	.	4F	.
4C	.	4E	.
4C	.	2A.	.
8BB-L	.	.	.
8AAJ	.	.	.
=22	=22	=22	=22
1BB-	.	.	.
.	.	8GL	.
.	.	8FJ	.
.	.	2G	.
2AA	-am,	1A	-am,
1F	et	.	.
=23	=23	=23	=23
.	.	1c	et
2E-X	se-	.	.
1D	-qua-	2B-	se-
.	.	1A	-qua-
=24	=24	=24	=24
2C	-tur-	.	.
2BB-.	-me,	2G	-tur
.	.	2.F	me,
4C	.	.	.
4D	.	.	.
4Eni	.	4G	.
=25	=25	=25	=25
2F	.	4A	.
.	.	4B-	.
4r	.	2c	.
2A	et	.	.
.	.	4r	.
4G	se-	2d	et
2F	-qua-	.	.
.	.	4c	se-
=26	=26	=26	=26
4G	-tur,	2B-	-qua-
2D	et	.	.
.	.	2A	-tur,
4C	se-	.	.
2BB-	-qua-	4r	.
.	.	2d	et
2AA	-tur,	.	.
.	.	4c	se-
=27	=27	=27	=27
4r	.	2B-	-qua-
2G	et	.	.
.	.	2A	-tur,
4F	se-	.	.
2E-X	-qua-	4r	.
.	.	2B-	et
2D	-tur,	.	.
.	.	4A	se-
=28	=28	=28	=28
4r	.	2G	-qua-
2B-	et	.	.
.	.	2F	-tur,
4A	se-	.	.
2G	-qua-	4r	.
.	.	2B-	et
2F	-tur,	.	.
.	.	4A	se-
=29	=29	=29	=29
4r	.	2G	-qua-
2BB-	et	.	.
.	.	2F	-tur,
4AA	se-	.	.
2GG	-qua-	4r	.
.	.	2d	et
2FF	-tur,	.	.
.	.	4c	se-
=30	=30	=30	=30
4r	.	2B-	-qua-
2D	et	.	.
.	.	2A	-tur,
4C	se-	.	.
2BB-	-qua-	4r	.
.	.	2G	et
2AA	-tur	.	.
.	.	4F	se-
=31	=31	=31	=31
1GG	me:	2E-X	-qua-
.	.	2D	-tur
2r	.	1C	me:
2G	di-	.	.
=32	=32	=32	=32
2E	-cit	1c	di-
2F.	Do-	.	.
.	.	2A	-cit
4E	.	.	.
4D	.	2f.	Do-
4C	.	.	.
=33	=33	=33	=33
2.BB-	.	.	.
.	.	4e	.
.	.	4d	.
4C	.	4c	.
4D	.	2B-	.
4E	.	.	.
1F	.	2A	-mi-
=34	=34	=34	=34
.	.	1G	-nus,
2E	-mi-	.	.
1F	-nus,	2r	.
.	.	1F	di-
=35	=35	=35	=35
1BB-	di-	.	.
.	.	2D	-cit
2GG	-cit	2.B-	Do-
2BB-.	Do-	.	.
.	.	4A	.
=36	=36	=36	=36
.	.	4G	.
4AA	.	4F	.
4AA	.	1F	.
8GGL	.	.	.
8FFJ	.	.	.
2GG	.	.	.
2GG	-mi-	2E	-mi-
=37	=37	=37	=37
0FF	-nus.	0F	-nus.
==	==	==	==
*-	*-	*-	*-
!!!RDF**kern: l = terminal long
!!!RDF**kern: i = editorial accidental
!!!PDT: 1590
!!!PED: Adam Berg
!!!AGN: Motet; Bicinium
!!!YOR: https://mdz-nbn-resolving.de/details:bsb00090897
!!!YOO: München, Bayerische Staatsbibliothek
!!!URL-scan: https://www.digitale-sammlungen.de/view/bsb00090897?page=12 Tenor
!!!URL-scan: https://www.digitale-sammlungen.de/view/bsb00090897?page=52 Bassus
!!!IIIF: https://api.digitale-sammlungen.de/iiif/presentation/v2/bsb00090897/manifest
!!!EED: Mirko Sattig
!!!END: 2023/11/24
!!!ENC: Mirko Sattig
!!!EEV: 2024/02/12
!!!title: @{ONM}. @{OTL}
!!!system-decoration: [s1,s2]